images/icon/tags.svg

<svg height="140" viewBox="0 0 140 140" width="140" xmlns="http://www.w3.org/2000/svg"><path d="m9.561 5.354-5.207-5.208a.5.5 0 0 0 -.354-.146h-3a1 1 0 0 0 -1 1v3a.5.5 0 0 0 .146.354l5.208 5.207a1.5 1.5 0 0 0 2.121 0l2.086-2.086a1.5 1.5 0 0 0 0-2.121zm-7.061-1.854a1 1 0 1 1 1-1 1 1 0 0 1 -1 1z" transform="scale(14)"/></svg>

<svg viewBox="0 0 140 140" height="140" width="140" xmlns="http://www.w3.org/2000/svg"><g transform="matrix(14,0,0,14,0,0)"><path d="M9.561,5.354,4.354.146A.5.5,0,0,0,4,0H1A1,1,0,0,0,0,1V4a.5.5,0,0,0,.146.354L5.354,9.561a1.5,1.5,0,0,0,2.121,0L9.561,7.475a1.5,1.5,0,0,0,0-2.121ZM2.5,3.5a1,1,0,1,1,1-1A1,1,0,0,1,2.5,3.5Z" fill="#000" stroke="none" stroke-linecap="round" stroke-linejoin="round" stroke-width="0"></path></g></svg>
